root/assets/icons/g2e_tech.svg

<svg width="48" height="60" viewBox="0 0 48 60" fill="none" xmlns="http://www.w3.org/2000/svg">
<path d="M27.6913 23.4548C24.2906 29.8875 23.1416 37.3212 23.999 44.3573C29.5765 42.4652 34.6343 38.1554 38.035 31.7228C41.4357 25.2902 42.5847 17.8564 41.7273 10.8203C36.1499 12.7125 31.0921 17.0222 27.6913 23.4548Z" fill="url(#paint0_linear_1075_1864)"/>
<path d="M20.3084 23.4545C23.7092 29.8871 24.8582 37.3208 24.0007 44.357C18.4233 42.4648 13.3655 38.1551 9.96476 31.7225C6.56403 25.2898 5.41505 17.8525 6.27245 10.8164C11.8499 12.7086 16.9077 17.0183 20.3084 23.4509V23.4545Z" fill="url(#paint1_linear_1075_1864)"/>
<path d="M17.168 22.1592C17.168 30.6615 19.7517 38.4183 24.0012 44.3184C28.2507 38.4183 30.8344 30.6615 30.8344 22.1592C30.8344 13.6569 28.2507 5.90013 24.0012 0C19.7517 5.90013 17.168 13.6569 17.168 22.1592Z" fill="url(#paint2_linear_1075_1864)"/>
<path d="M27.6913 23.4548C24.2906 29.8875 23.1416 37.3212 23.999 44.3573C29.5765 42.4652 34.6343 38.1554 38.035 31.7228C41.4357 25.2902 42.5847 17.8564 41.7273 10.8203C36.1499 12.7125 31.0921 17.0222 27.6913 23.4548Z" fill="url(#paint3_linear_1075_1864)"/>
<path d="M20.3084 23.4545C23.7092 29.8871 24.8582 37.3208 24.0007 44.357C18.4233 42.4648 13.3655 38.1551 9.96476 31.7225C6.56403 25.2898 5.41505 17.8525 6.27245 10.8164C11.8499 12.7086 16.9077 17.0183 20.3084 23.4509V23.4545Z" fill="url(#paint4_linear_1075_1864)"/>
<path d="M17.168 22.1592C17.168 30.6615 19.7517 38.4183 24.0012 44.3184C28.2507 38.4183 30.8344 30.6615 30.8344 22.1592C30.8344 13.6569 28.2507 5.90013 24.0012 0C19.7517 5.90013 17.168 13.6569 17.168 22.1592Z" fill="url(#paint5_linear_1075_1864)"/>
<foreignObject x="-6.00322" y="17.9519" width="60.3033" height="56.4029"><div xmlns="http://www.w3.org/1999/xhtml" style="backdrop-filter:blur(7.64px);clip-path:url(#bgblur_0_1075_1864_clip_path);height:100%;width:100%"></div></foreignObject><path data-figma-bg-blur-radius="15.2786" d="M12.4492 34.0791H35.8477C36.5567 34.0791 37.2306 34.5043 37.6846 35.2773C38.1378 36.0492 38.3185 37.0982 38.04 38.1416L33.2305 56.1709H33.2295C32.8724 57.5086 31.9236 58.2273 31.0381 58.2275H17.2588C16.3732 58.2273 15.4234 57.5088 15.0664 56.1709L10.2568 38.1416L10.21 37.9463C10.0019 36.9684 10.1874 36.0011 10.6123 35.2773C11.0663 34.5043 11.7402 34.0791 12.4492 34.0791Z" fill="url(#paint6_linear_1075_1864)" stroke="url(#paint7_linear_1075_1864)" stroke-width="1.69762"/>
<defs>
<clipPath id="bgblur_0_1075_1864_clip_path" transform="translate(6.00322 -17.9519)"><path d="M12.4492 34.0791H35.8477C36.5567 34.0791 37.2306 34.5043 37.6846 35.2773C38.1378 36.0492 38.3185 37.0982 38.04 38.1416L33.2305 56.1709H33.2295C32.8724 57.5086 31.9236 58.2273 31.0381 58.2275H17.2588C16.3732 58.2273 15.4234 57.5088 15.0664 56.1709L10.2568 38.1416L10.21 37.9463C10.0019 36.9684 10.1874 36.0011 10.6123 35.2773C11.0663 34.5043 11.7402 34.0791 12.4492 34.0791Z"/>
</clipPath><linearGradient id="paint0_linear_1075_1864" x1="41.3405" y1="12.645" x2="20.0713" y2="37.4384" gradientUnits="userSpaceOnUse">
<stop stop-color="#21D898"/>
<stop offset="1" stop-color="#198E9B"/>
</linearGradient>
<linearGradient id="paint1_linear_1075_1864" x1="8.12005" y1="15.9284" x2="27.9947" y2="37.7644" gradientUnits="userSpaceOnUse">
<stop stop-color="#21D898"/>
<stop offset="1" stop-color="#198E9B"/>
</linearGradient>
<linearGradient id="paint2_linear_1075_1864" x1="24.1946" y1="6.93318" x2="23.5181" y2="42.113" gradientUnits="userSpaceOnUse">
<stop stop-color="#85FFB7"/>
<stop offset="1" stop-color="#30FF80"/>
</linearGradient>
<linearGradient id="paint3_linear_1075_1864" x1="41.3405" y1="12.645" x2="20.0713" y2="37.4384" gradientUnits="userSpaceOnUse">
<stop stop-color="#21D898"/>
<stop offset="1" stop-color="#198E9B"/>
</linearGradient>
<linearGradient id="paint4_linear_1075_1864" x1="8.12005" y1="15.9284" x2="27.9947" y2="37.7644" gradientUnits="userSpaceOnUse">
<stop stop-color="#21D898"/>
<stop offset="1" stop-color="#198E9B"/>
</linearGradient>
<linearGradient id="paint5_linear_1075_1864" x1="24.1946" y1="6.93318" x2="23.5181" y2="42.113" gradientUnits="userSpaceOnUse">
<stop stop-color="#85FFB7"/>
<stop offset="1" stop-color="#30FF80"/>
</linearGradient>
<linearGradient id="paint6_linear_1075_1864" x1="10.9547" y1="57.6175" x2="33.658" y2="31.4885" gradientUnits="userSpaceOnUse">
<stop stop-color="white" stop-opacity="0.2"/>
<stop offset="1" stop-color="white" stop-opacity="0.49"/>
</linearGradient>
<linearGradient id="paint7_linear_1075_1864" x1="11.3751" y1="35.2632" x2="32.5707" y2="61.3458" gradientUnits="userSpaceOnUse">
<stop stop-color="white"/>
<stop offset="1" stop-color="white" stop-opacity="0"/>
</linearGradient>
</defs>
</svg>

<svg xmlns="http://www.w3.org/2000/svg" width="48" height="60" fill="none" viewBox="0 0 48 60"><path fill="url(#a)" d="M27.691 23.455c-3.4 6.433-4.55 13.866-3.692 20.902 5.578-1.892 10.635-6.202 14.036-12.634s4.55-13.867 3.692-20.903c-5.577 1.893-10.635 6.202-14.036 12.635"/><path fill="url(#b)" d="M20.308 23.455c3.401 6.432 4.55 13.866 3.693 20.902-5.578-1.892-10.635-6.202-14.036-12.634s-4.55-13.87-3.693-20.907c5.578 1.893 10.636 6.202 14.036 12.635z"/><path fill="url(#c)" d="M17.168 22.16c0 8.502 2.584 16.258 6.833 22.158 4.25-5.9 6.833-13.656 6.833-22.159S28.251 5.9 24.001 0c-4.25 5.9-6.833 13.657-6.833 22.16"/><path fill="url(#d)" d="M27.691 23.455c-3.4 6.433-4.55 13.866-3.692 20.902 5.578-1.892 10.635-6.202 14.036-12.634s4.55-13.867 3.692-20.903c-5.577 1.893-10.635 6.202-14.036 12.635"/><path fill="url(#e)" d="M20.308 23.455c3.401 6.432 4.55 13.866 3.693 20.902-5.578-1.892-10.635-6.202-14.036-12.634s-4.55-13.87-3.693-20.907c5.578 1.893 10.636 6.202 14.036 12.635z"/><path fill="url(#f)" d="M17.168 22.16c0 8.502 2.584 16.258 6.833 22.158 4.25-5.9 6.833-13.656 6.833-22.159S28.251 5.9 24.001 0c-4.25 5.9-6.833 13.657-6.833 22.16"/><foreignObject width="60.303" height="56.403" x="-6.003" y="17.952"><div xmlns="http://www.w3.org/1999/xhtml" style="backdrop-filter:blur(7.64px);clip-path:url(#g);height:100%;width:100%"/></foreignObject><path fill="url(#h)" stroke="url(#i)" stroke-width="1.698" d="M12.45 34.08h23.398c.709 0 1.383.424 1.837 1.197.453.772.633 1.821.355 2.865L33.23 56.17c-.358 1.338-1.306 2.056-2.192 2.057h-13.78c-.885 0-1.835-.72-2.192-2.057l-4.81-18.03-.046-.195c-.208-.978-.023-1.945.402-2.669.454-.773 1.128-1.198 1.837-1.198Z" data-figma-bg-blur-radius="15.279"/><defs><linearGradient id="a" x1="41.34" x2="20.071" y1="12.645" y2="37.438" gradientUnits="userSpaceOnUse"><stop stop-color="#21d898"/><stop offset="1" stop-color="#198e9b"/></linearGradient><linearGradient id="b" x1="8.12" x2="27.995" y1="15.928" y2="37.764" gradientUnits="userSpaceOnUse"><stop stop-color="#21d898"/><stop offset="1" stop-color="#198e9b"/></linearGradient><linearGradient id="c" x1="24.195" x2="23.518" y1="6.933" y2="42.113" gradientUnits="userSpaceOnUse"><stop stop-color="#85ffb7"/><stop offset="1" stop-color="#30ff80"/></linearGradient><linearGradient id="d" x1="41.34" x2="20.071" y1="12.645" y2="37.438" gradientUnits="userSpaceOnUse"><stop stop-color="#21d898"/><stop offset="1" stop-color="#198e9b"/></linearGradient><linearGradient id="e" x1="8.12" x2="27.995" y1="15.928" y2="37.764" gradientUnits="userSpaceOnUse"><stop stop-color="#21d898"/><stop offset="1" stop-color="#198e9b"/></linearGradient><linearGradient id="f" x1="24.195" x2="23.518" y1="6.933" y2="42.113" gradientUnits="userSpaceOnUse"><stop stop-color="#85ffb7"/><stop offset="1" stop-color="#30ff80"/></linearGradient><linearGradient id="h" x1="10.955" x2="33.658" y1="57.617" y2="31.488" gradientUnits="userSpaceOnUse"><stop stop-color="#fff" stop-opacity=".2"/><stop offset="1" stop-color="#fff" stop-opacity=".49"/></linearGradient><linearGradient id="i" x1="11.375" x2="32.571" y1="35.263" y2="61.346" gradientUnits="userSpaceOnUse"><stop stop-color="#fff"/><stop offset="1" stop-color="#fff" stop-opacity="0"/></linearGradient><clipPath id="g" transform="translate(6.003 -17.952)"><path d="M12.45 34.08h23.398c.709 0 1.383.424 1.837 1.197.453.772.633 1.821.355 2.865L33.23 56.17c-.358 1.338-1.306 2.056-2.192 2.057h-13.78c-.885 0-1.835-.72-2.192-2.057l-4.81-18.03-.046-.195c-.208-.978-.023-1.945.402-2.669.454-.773 1.128-1.198 1.837-1.198"/></clipPath></defs></svg>
